X:5
T:The Roscommon Reel
C:Traditional
N: Play 3 times
N:The Derradda Set, Figure 3, Tune 1 of 2
Z:Gordon Turnbull, Edinburgh
Z:gturnbull@theflow.org.uk
Z:http://www.theflow.org.uk
R:reel
L:1/8
M:C
K:EDor
EFGA BAFB | AF~F2 DF~F2 | EFGA BAFB | [1 AFdF FEED :|| [2 AFdF FEEB ||
eB ~B2 efge | fa ~a2 bfaf | eB ~B2 efge | [1 fagf efgf :|| [2 dBAF EFGA ||
B3 A BcdB | AF ~F2 DEFD | EBBA BcdB | [1 AFDE FEED :|| [2 AFdF FEEB ||
